icons/Matlab-Dark.svg

<svg width="256" height="256" viewBox="0 0 256 256" fill="none" xmlns="http://www.w3.org/2000/svg">
<rect width="256" height="256" rx="60" fill="#242938"/>
<path d="M33 138.187L86.7974 116.452C92.2581 109.236 98.4069 102.567 105.157 96.5398C109.612 94.1774 117.982 95.4598 133.305 76.4249C148.155 57.8625 152.88 42 159.832 42C170.835 42 178.935 65.7599 191.22 101.737C199.979 129.218 210.254 156.192 221.999 182.535C209.175 170.587 198.24 157.695 185.752 158.032C174.142 158.302 161.25 172.072 147.142 189.757C135.937 203.932 121.087 213.652 115.282 213.45C115.282 213.45 100.297 171.06 87.7423 164.175C85.1376 163.111 82.318 162.678 79.514 162.913C76.7101 163.147 74.0016 164.042 71.6099 165.525L33 138.12V138.187Z" fill="#4499DD"/>
<path d="M153.151 46.8613C148.629 52.9363 143.161 64.0738 133.306 76.4262C117.984 95.4612 109.681 94.1787 105.159 96.5412C98.3761 102.536 92.2242 109.208 86.7988 116.454L109.074 132.721C127.974 106.936 138.099 78.9912 145.996 60.9013C147.974 56.0246 150.368 51.3272 153.151 46.8613V46.8613Z" fill="url(#paint0_linear_601_132)"/>
<path d="M159.9 42C145.185 42 135.128 119.49 80.7905 162.757C96.0455 160.26 109.275 198.127 115.35 213.45C142.35 208.86 163.95 157.222 185.753 158.032C198.24 158.505 209.175 170.587 222 182.535C192.705 120.975 179.003 42 159.9 42Z" fill="url(#paint1_linear_601_132)"/>
<defs>
<linearGradient id="paint0_linear_601_132" x1="132.921" y1="123.467" x2="120.839" y2="84.452" gradientUnits="userSpaceOnUse">
<stop stop-color="#551122"/>
<stop offset="0.23" stop-color="#552233"/>
<stop offset="0.36" stop-color="#553344"/>
<stop offset="0.51" stop-color="#664455"/>
<stop offset="0.66" stop-color="#556688"/>
<stop offset="0.84" stop-color="#2299DD"/>
</linearGradient>
<linearGradient id="paint1_linear_601_132" x1="220.043" y1="147.86" x2="98.543" y2="118.025" gradientUnits="userSpaceOnUse">
<stop offset="0.081" stop-color="#CC3333"/>
<stop offset="0.189" stop-color="#DE5239"/>
<stop offset="0.313" stop-color="#F06E3E"/>
<stop offset="0.421" stop-color="#FA8042"/>
<stop offset="0.5" stop-color="#FE8643"/>
<stop offset="0.58" stop-color="#FA7F42"/>
<stop offset="0.696" stop-color="#EF6C3E"/>
<stop offset="0.833" stop-color="#DC4C37"/>
<stop offset="0.916" stop-color="#CF3633"/>
</linearGradient>
</defs>
</svg>

<svg xmlns="http://www.w3.org/2000/svg" width="256" height="256" fill="none" viewBox="0 0 256 256"><rect width="256" height="256" fill="#242938" rx="60"/><path fill="#49D" d="m33 138.19 53.8-21.74a140 140 0 0 1 18.36-19.91c4.45-2.36 12.82-1.08 28.15-20.12C148.16 57.86 152.88 42 159.83 42c11 0 19.1 23.76 31.39 59.74a780 780 0 0 0 30.78 80.8c-12.82-11.95-23.76-24.84-36.25-24.5-11.6.26-24.5 14.03-38.6 31.72-11.21 14.17-26.06 23.9-31.87 23.69 0 0-14.98-42.39-27.54-49.27a17.8 17.8 0 0 0-16.13 1.34L33 138.13z"/><path fill="url(#a)" d="M153.15 46.86c-4.52 6.08-9.99 17.21-19.84 29.57-15.33 19.03-23.63 17.75-28.15 20.11a133 133 0 0 0-18.36 19.91l22.27 16.27C127.97 106.94 138.1 79 146 60.9a92 92 0 0 1 7.15-14.04"/><path fill="url(#b)" d="M159.9 42c-14.72 0-24.77 77.49-79.11 120.76 15.26-2.5 28.49 35.37 34.56 50.69 27-4.59 48.6-56.23 70.4-55.42 12.49.47 23.43 12.56 36.25 24.5C192.7 120.98 179 42 159.9 42"/><defs><linearGradient id="a" x1="132.92" x2="120.84" y1="123.47" y2="84.45" gradientUnits="userSpaceOnUse"><stop stop-color="#512"/><stop offset=".23" stop-color="#523"/><stop offset=".36" stop-color="#534"/><stop offset=".51" stop-color="#645"/><stop offset=".66" stop-color="#568"/><stop offset=".84" stop-color="#29D"/></linearGradient><linearGradient id="b" x1="220.04" x2="98.54" y1="147.86" y2="118.03" gradientUnits="userSpaceOnUse"><stop offset=".08" stop-color="#C33"/><stop offset=".19" stop-color="#DE5239"/><stop offset=".31" stop-color="#F06E3E"/><stop offset=".42" stop-color="#FA8042"/><stop offset=".5" stop-color="#FE8643"/><stop offset=".58" stop-color="#FA7F42"/><stop offset=".7" stop-color="#EF6C3E"/><stop offset=".83" stop-color="#DC4C37"/><stop offset=".92" stop-color="#CF3633"/></linearGradient></defs></svg>
